lib/brands/icons/tailwind-css.svg

<svg xmlns="http://www.w3.org/2000/svg" fill="none" aria-hidden="true" viewBox="0 0 48 48"><g id="tailwind-css-Icon"><path id="Vector" fill="url(#paint0_linear_94_16839)" d="M24 12C18.6667 12 15.3333 14.6667 14 20C16 17.3333 18.3333 16.3333 21 17C22.5215 17.3804 23.609 18.4841 24.8127 19.706C26.7736 21.6964 29.043 24 34 24C39.3333 24 42.6667 21.3333 44 16C42 18.6667 39.6667 19.6667 37 19C35.4785 18.6196 34.391 17.5159 33.1873 16.294C31.2264 14.3036 28.957 12 24 12ZM14 24C8.66667 24 5.33333 26.6667 4 32C6 29.3333 8.33333 28.3333 11 29C12.5215 29.3804 13.609 30.4841 14.8127 31.706C16.7736 33.6964 19.043 36 24 36C29.3333 36 32.6667 33.3333 34 28C32 30.6667 29.6667 31.6667 27 31C25.4785 30.6196 24.391 29.5159 23.1873 28.294C21.2264 26.3036 18.957 24 14 24Z"/></g><defs><linearGradient id="paint0_linear_94_16839" x1="2.88889" x2="37.4354" y1="19.68" y2="39.5987" gradientUnits="userSpaceOnUse"><stop stop-color="#2298BD"/><stop offset="1" stop-color="#0ED7B5"/></linearGradient></defs></svg>

<svg xmlns="http://www.w3.org/2000/svg" fill="none" aria-hidden="true" viewBox="0 0 48 48"><path fill="url(#a)" d="M24 12c-5.333 0-8.667 2.667-10 8 2-2.667 4.333-3.667 7-3 1.521.38 2.609 1.484 3.813 2.706C26.773 21.696 29.043 24 34 24c5.333 0 8.667-2.667 10-8-2 2.667-4.333 3.667-7 3-1.522-.38-2.609-1.484-3.813-2.706C31.227 14.304 28.957 12 24 12ZM14 24c-5.333 0-8.667 2.667-10 8 2-2.667 4.333-3.667 7-3 1.521.38 2.609 1.484 3.813 2.706C16.773 33.696 19.043 36 24 36c5.333 0 8.667-2.667 10-8-2 2.667-4.333 3.667-7 3-1.521-.38-2.609-1.484-3.813-2.706C21.227 26.304 18.957 24 14 24Z"/><defs><linearGradient id="a" x1="2.889" x2="37.435" y1="19.68" y2="39.599" gradientUnits="userSpaceOnUse"><stop stop-color="#2298BD"/><stop offset="1" stop-color="#0ED7B5"/></linearGradient></defs></svg>
